src/lib/packages/icons/src/assets/line/money-bill-check.svg

<svg xmlns="http://www.w3.org/2000/svg" width="24" height="24" fill="none"><path fill="currentColor" d="M11.75 18a.75.75 0 0 1-.75.75H5c-2.418 0-3.75-1.332-3.75-3.75V7c0-2.418 1.332-3.75 3.75-3.75h12c2.418 0 3.75 1.332 3.75 3.75v3a.75.75 0 0 1-1.5 0V7c0-1.577-.673-2.25-2.25-2.25H5c-1.577 0-2.25.673-2.25 2.25v8c0 1.577.673 2.25 2.25 2.25h6a.75.75 0 0 1 .75.75ZM4 11a1 1 0 1 0 2 0 1 1 0 0 0-2 0Zm7-3.75A3.754 3.754 0 0 1 14.75 11 3.754 3.754 0 0 1 11 14.75 3.754 3.754 0 0 1 7.25 11 3.754 3.754 0 0 1 11 7.25Zm0 1.5A2.252 2.252 0 0 0 8.75 11 2.252 2.252 0 0 0 11 13.25 2.252 2.252 0 0 0 13.25 11 2.252 2.252 0 0 0 11 8.75ZM22.75 17A4.756 4.756 0 0 1 18 21.75 4.756 4.756 0 0 1 13.25 17 4.756 4.756 0 0 1 18 12.25 4.756 4.756 0 0 1 22.75 17Zm-1.5 0A3.254 3.254 0 0 0 18 13.75 3.254 3.254 0 0 0 14.75 17 3.254 3.254 0 0 0 18 20.25 3.254 3.254 0 0 0 21.25 17Zm-2.53-1.364-1.136 1.136-.303-.303a.751.751 0 0 0-1.061 1.061l.833.833a.747.747 0 0 0 1.06-.001l1.667-1.667a.75.75 0 1 0-1.06-1.059Z"/></svg>

<svg width="24" height="24" viewBox="0 0 24 24" fill="none" xmlns="http://www.w3.org/2000/svg">
<path d="M11.75 18C11.75 18.414 11.414 18.75 11 18.75H5C2.582 18.75 1.25 17.418 1.25 15V7C1.25 4.582 2.582 3.25 5 3.25H17C19.418 3.25 20.75 4.582 20.75 7V10C20.75 10.414 20.414 10.75 20 10.75C19.586 10.75 19.25 10.414 19.25 10V7C19.25 5.423 18.577 4.75 17 4.75H5C3.423 4.75 2.75 5.423 2.75 7V15C2.75 16.577 3.423 17.25 5 17.25H11C11.414 17.25 11.75 17.586 11.75 18ZM4 11C4 11.552 4.448 12 5 12C5.552 12 6 11.552 6 11C6 10.448 5.552 10 5 10C4.448 10 4 10.448 4 11ZM11 7.25C13.068 7.25 14.75 8.932 14.75 11C14.75 13.068 13.068 14.75 11 14.75C8.932 14.75 7.25 13.068 7.25 11C7.25 8.932 8.932 7.25 11 7.25ZM11 8.75C9.759 8.75 8.75 9.759 8.75 11C8.75 12.241 9.759 13.25 11 13.25C12.241 13.25 13.25 12.241 13.25 11C13.25 9.759 12.241 8.75 11 8.75ZM22.75 17C22.75 19.619 20.619 21.75 18 21.75C15.381 21.75 13.25 19.619 13.25 17C13.25 14.381 15.381 12.25 18 12.25C20.619 12.25 22.75 14.381 22.75 17ZM21.25 17C21.25 15.208 19.792 13.75 18 13.75C16.208 13.75 14.75 15.208 14.75 17C14.75 18.792 16.208 20.25 18 20.25C19.792 20.25 21.25 18.792 21.25 17ZM18.72 15.636L17.584 16.772L17.281 16.469C16.988 16.177 16.513 16.176 16.22 16.469C15.927 16.762 15.927 17.237 16.22 17.53L17.053 18.363C17.199 18.509 17.391 18.582 17.583 18.582C17.775 18.582 17.967 18.509 18.113 18.362L19.78 16.695C20.073 16.402 20.073 15.927 19.78 15.634C19.487 15.344 19.013 15.344 18.72 15.636Z" fill="currentColor"/>
</svg>
